X: 36232
T: Scurlogue Champ
R: jig
M: 6/8
K: Gmajor
|:BAB dBG|BAB dBG|A2 G FED|A2 G FED|
BAB dBG|BAB dBG|A2 G FED||GBA G3:|
|:ede gfe|ede gfe|ded BAG|ded BAG|
ede gfe|ded BAG|AGA cBA|GBA G3:|

